assets/svg/favicon.svg

<svg width="56" height="50" viewBox="0 0 56 50" fill="none" xmlns="http://www.w3.org/2000/svg"><path d="M54.9006 47.1803C55.1042 48.3996 54.1641 49.5097 52.9279 49.5097H37.2544C36.3462 49.5097 35.552 48.8978 35.3205 48.0196L34.8839 46.3636C33.059 39.9058 29.4091 34.276 27.916 34.276C26.257 34.276 22.7731 40.0714 20.9482 46.3636L20.5116 48.0196C20.2801 48.8978 19.4859 49.5097 18.5777 49.5097H2.90414C1.66802 49.5097 0.72786 48.3996 0.931456 47.1803L1.37198 44.5422C2.53329 37.0909 9.1693 0 27.5842 0C27.7501 0 27.7501 0 27.916 0C28.0819 0 28.0819 0 28.2478 0C46.6628 0 53.2988 36.9253 54.4601 44.5422L54.9006 47.1803ZM42.1835 40.8994H45.0038C42.0176 26.3279 35.3816 8.61039 28.2478 8.61039H28.0819H27.916H27.7501H27.5842C20.2846 8.61039 13.8145 26.3279 10.8283 40.8994H13.6486C15.6394 35.4351 20.2846 25.6656 27.916 25.6656C35.5475 25.6656 40.1927 35.4351 42.1835 40.8994Z" fill="url(#paint0_linear_387_17)"/><defs><linearGradient id="paint0_linear_387_17" x1="0.54248" y1="24.7549" x2="55.2896" y2="24.7549" gradientUnits="userSpaceOnUse"><stop stop-color="#FF6A6A"/><stop offset="1" stop-color="#FF7E00"/></linearGradient></defs></svg>

<svg xmlns="http://www.w3.org/2000/svg" width="56" height="50" fill="none" xmlns:v="https://vecta.io/nano"><path d="M54.901 47.18a2 2 0 0 1-1.973 2.329H37.254a2 2 0 0 1-1.934-1.49l-.437-1.656c-1.825-6.458-5.475-12.088-6.968-12.088-1.659 0-5.143 5.795-6.968 12.088l-.437 1.656a2 2 0 0 1-1.934 1.49H2.904A2 2 0 0 1 .931 47.18l.441-2.638C2.533 37.091 9.169 0 27.584 0h.332.332C46.663 0 53.299 36.925 54.46 44.542l.441 2.638zm-12.717-6.281h2.82C42.018 26.328 35.382 8.61 28.248 8.61h-.166-.166-.166-.166c-7.3 0-13.77 17.718-16.756 32.289h2.82c1.991-5.464 6.636-15.234 14.267-15.234s12.277 9.769 14.268 15.234z" fill="url(#A)"/><defs><linearGradient id="A" x1=".542" y1="24.755" x2="55.29" y2="24.755" gradientUnits="userSpaceOnUse"><stop stop-color="#ff6a6a"/><stop offset="1" stop-color="#ff7e00"/></linearGradient></defs></svg>
